X: 10653
T: Down The Back Lane
R: jig
M: 6/8
K: Dmixolydian
ABG A2G|FDE F2d|cAA BAG|Ade fed|
cAG A2G|FDE F2G|Add fed|e^cA ~G3:|
|:Add fed|cAB cAG|Add fed|e^cA ~G3|
Add fed|cAB cde|fag efd|cAF ~G3:|

